apps/app.mento.org/public/tokens/cGBP.svg

<svg width="40" height="40" viewBox="0 0 40 40" fill="none" xmlns="http://www.w3.org/2000/svg">
<g clip-path="url(#clip0_4059_20154)">
<path d="M20 40C31.0457 40 40 31.0457 40 20C40 8.95431 31.0457 0 20 0C8.95431 0 0 8.95431 0 20C0 31.0457 8.95431 40 20 40Z" fill="#82FF68"/>
<path d="M19.8167 20.7494C22.1555 19.5035 22.5927 18.1046 22.1118 16.4434H19.5544V14.8259H21.4561C20.9315 13.7767 20.4288 12.8149 20.4288 11.2412C20.4288 8.79309 22.4178 6.80402 25.5654 6.80402C28.8659 6.80402 30.8987 8.74937 30.9206 12.0936H28.5381C28.5599 9.95156 27.314 8.92423 25.5654 8.92423C23.8605 8.92423 22.7894 9.82041 22.7894 11.3067C22.7894 12.6619 23.4233 13.7548 23.9479 14.8259H28.9315V16.4434H24.5599C24.8659 17.9953 24.3632 19.5472 23.0517 20.6838H31.1173V22.804H19.8167V20.7494Z" fill="#070010"/>
<path d="M19.6717 30.5103C15.2125 30.5103 11.5677 26.8663 11.5677 22.4063C11.5677 19.2415 13.3901 16.4599 16.0749 15.1655V12.2407C11.9029 13.7271 8.88208 17.7071 8.88208 22.4063C8.88208 28.3527 13.7253 33.1959 19.6717 33.1959C24.3709 33.1959 28.3509 30.1751 29.8373 26.0031H26.9125C25.6181 28.6887 22.8365 30.5103 19.6717 30.5103Z" fill="#070010"/>
</g>
<defs>
<clipPath id="clip0_4059_20154">
<rect width="40" height="40" fill="white"/>
</clipPath>
</defs>
</svg>

<svg xmlns="http://www.w3.org/2000/svg" width="40" height="40" fill="none" viewBox="0 0 40 40"><g clip-path="url(#a)"><path fill="#82FF68" d="M20 40c11.046 0 20-8.954 20-20S31.046 0 20 0 0 8.954 0 20s8.954 20 20 20"/><path fill="#070010" d="M19.817 20.75c2.339-1.247 2.776-2.645 2.295-4.307h-2.558v-1.617h1.902c-.524-1.05-1.027-2.011-1.027-3.585 0-2.448 1.989-4.437 5.136-4.437 3.3 0 5.334 1.945 5.356 5.29h-2.383c.022-2.142-1.224-3.17-2.973-3.17-1.705 0-2.776.896-2.776 2.383 0 1.355.634 2.448 1.159 3.519h4.983v1.617H24.56c.306 1.552-.197 3.104-1.508 4.24h8.065v2.121h-11.3z"/><path fill="#070010" d="M19.672 30.51c-4.46 0-8.104-3.644-8.104-8.104 0-3.165 1.822-5.946 4.507-7.24V12.24c-4.172 1.486-7.193 5.466-7.193 10.165 0 5.947 4.843 10.79 10.79 10.79 4.699 0 8.679-3.02 10.165-7.193h-2.924c-1.295 2.686-4.076 4.507-7.241 4.507"/></g><defs><clipPath id="a"><path fill="#fff" d="M0 0h40v40H0z"/></clipPath></defs></svg>
